Newaita-dark/mimetypes/128/x-office-address-book.svg

<?xml version="1.0" encoding="UTF-8"?>
<svg xmlns="http://www.w3.org/2000/svg" xmlns:xlink="http://www.w3.org/1999/xlink" width="128pt" height="128pt" viewBox="0 0 128 128" version="1.1">
<defs>
<linearGradient id="linear0" gradientUnits="userSpaceOnUse" x1="254" y1="233.5" x2="254" y2="254.666672" gradientTransform="matrix(0.250024,0,0,0.250024,-0.0000152602,53.75514)">
<stop offset="0" style="stop-color:rgb(0%,0%,0%);stop-opacity:0.27451;"/>
<stop offset="1" style="stop-color:rgb(0%,0%,0%);stop-opacity:0;"/>
</linearGradient>
<radialGradient id="radial0" gradientUnits="userSpaceOnUse" cx="450.908936" cy="189.579361" fx="450.908936" fy="189.579361" r="21.166656" gradientTransform="matrix(0.000000696681,-0.31253,-0.562554,-0.000000406154,200.584342,254.38133)">
<stop offset="0" style="stop-color:rgb(0%,0%,0%);stop-opacity:0.313725;"/>
<stop offset="0.222222" style="stop-color:rgb(0%,0%,0%);stop-opacity:0.27451;"/>
<stop offset="1" style="stop-color:rgb(0%,0%,0%);stop-opacity:0;"/>
</radialGradient>
<radialGradient id="radial1" gradientUnits="userSpaceOnUse" cx="450.908936" cy="189.579361" fx="450.908936" fy="189.579361" r="21.166656" gradientTransform="matrix(-0.000000696681,0.31253,0.562554,0.000000406154,-73.572195,-30.109921)">
<stop offset="0" style="stop-color:rgb(0%,0%,0%);stop-opacity:0.313725;"/>
<stop offset="0.222222" style="stop-color:rgb(0%,0%,0%);stop-opacity:0.27451;"/>
<stop offset="1" style="stop-color:rgb(0%,0%,0%);stop-opacity:0;"/>
</radialGradient>
<radialGradient id="radial2" gradientUnits="userSpaceOnUse" cx="450.908936" cy="189.579361" fx="450.908936" fy="189.579361" r="21.166656" gradientTransform="matrix(-0.000000696681,-0.31253,0.562554,-0.000000406154,-73.572195,254.38133)">
<stop offset="0" style="stop-color:rgb(0%,0%,0%);stop-opacity:0.313725;"/>
<stop offset="0.222222" style="stop-color:rgb(0%,0%,0%);stop-opacity:0.27451;"/>
<stop offset="1" style="stop-color:rgb(0%,0%,0%);stop-opacity:0;"/>
</radialGradient>
<radialGradient id="radial3" gradientUnits="userSpaceOnUse" cx="450.908936" cy="189.579361" fx="450.908936" fy="189.579361" r="21.166656" gradientTransform="matrix(0.000000696681,0.31253,-0.562554,0.000000406154,200.584335,-30.109917)">
<stop offset="0" style="stop-color:rgb(0%,0%,0%);stop-opacity:0.313725;"/>
<stop offset="0.222222" style="stop-color:rgb(0%,0%,0%);stop-opacity:0.27451;"/>
<stop offset="1" style="stop-color:rgb(0%,0%,0%);stop-opacity:0;"/>
</radialGradient>
<linearGradient id="linear1" gradientUnits="userSpaceOnUse" x1="306.916656" y1="-25.791676" x2="305.954559" y2="-141.414581" gradientTransform="matrix(0.301399,0,0,0.869648,-23.416052,134.565393)">
<stop offset="0" style="stop-color:rgb(73.72549%,66.666667%,64.313725%);stop-opacity:1;"/>
<stop offset="1" style="stop-color:rgb(84.313725%,80%,78.431373%);stop-opacity:1;"/>
</linearGradient>
<linearGradient id="linear2" gradientUnits="userSpaceOnUse" x1="165.484848" y1="-25.791672" x2="165.484848" y2="-141.414581" gradientTransform="matrix(4.556143,0,0,13.146184,-353.972656,2034.180176)">
<stop offset="0" style="stop-color:rgb(55.294118%,43.137255%,38.823529%);stop-opacity:1;"/>
<stop offset="1" style="stop-color:rgb(63.137255%,53.333333%,49.803922%);stop-opacity:1;"/>
</linearGradient>
<linearGradient id="linear3" gradientUnits="userSpaceOnUse" x1="920" y1="1786.046997" x2="920" y2="266.046936" gradientTransform="matrix(0.264583,0,0,0.264583,31.750002,-239.058243)">
<stop offset="0" style="stop-color:rgb(55.294118%,43.137255%,38.823529%);stop-opacity:1;"/>
<stop offset="1" style="stop-color:rgb(63.137255%,53.333333%,49.803922%);stop-opacity:1;"/>
</linearGradient>
</defs>
<g id="surface1">
<path style=" stroke:none;fill-rule:nonzero;fill:url(#linear0);" d="M 31.753906 112.136719 L 95.257812 112.136719 L 95.257812 117.429688 L 31.753906 117.429688 Z M 31.753906 112.136719 "/>
<path style=" stroke:none;fill-rule:nonzero;fill:url(#radial0);" d="M 95.257812 112.136719 L 105.84375 112.136719 L 105.84375 106.84375 L 95.257812 106.84375 Z M 95.257812 112.136719 "/>
<path style=" stroke:none;fill-rule:nonzero;fill:url(#radial1);" d="M 31.753906 112.136719 L 21.167969 112.136719 L 21.167969 117.429688 L 31.753906 117.429688 Z M 31.753906 112.136719 "/>
<path style=" stroke:none;fill-rule:nonzero;fill:url(#radial2);" d="M 31.753906 112.136719 L 21.167969 112.136719 L 21.167969 106.84375 L 31.753906 106.84375 Z M 31.753906 112.136719 "/>
<path style=" stroke:none;fill-rule:nonzero;fill:url(#radial3);" d="M 95.257812 112.136719 L 105.84375 112.136719 L 105.84375 117.429688 L 95.257812 117.429688 Z M 95.257812 112.136719 "/>
<path style=" stroke:none;fill-rule:nonzero;fill:url(#linear1);" d="M 26.460938 11.585938 L 100.550781 11.585938 C 103.472656 11.585938 105.84375 13.953125 105.84375 16.875 L 105.84375 106.84375 C 105.84375 109.765625 103.472656 112.136719 100.550781 112.136719 L 26.460938 112.136719 C 23.539062 112.136719 21.167969 109.765625 21.167969 106.84375 L 21.167969 16.875 C 21.167969 13.953125 23.539062 11.585938 26.460938 11.585938 Z M 26.460938 11.585938 "/>
<path style="fill-rule:nonzero;fill:url(#linear2);stroke-width:11.338583;stroke-linecap:round;stroke-linejoin:miter;stroke:rgb(12.941177%,12.941177%,12.941177%);stroke-opacity:1;stroke-miterlimit:4;" d="M 400.001193 175.140764 C 355.655032 175.140764 319.989144 210.806652 319.989144 255.093763 L 319.989144 1615.121439 C 319.989144 1659.408551 355.655032 1695.133488 400.001193 1695.133488 L 519.989741 1695.133488 L 519.989741 175.140764 Z M 400.001193 175.140764 " transform="matrix(0.0661521,0,0,0.0661521,0,0)"/>
<path style=" stroke:none;fill-rule:nonzero;fill:rgb(0%,0%,0%);fill-opacity:0.196078;" d="M 26.460938 111.835938 C 23.527344 111.835938 21.167969 109.476562 21.167969 106.542969 L 21.167969 105.882812 C 21.167969 108.816406 23.527344 111.175781 26.460938 111.175781 L 100.550781 111.175781 C 103.484375 111.175781 105.84375 108.816406 105.84375 105.882812 L 105.84375 106.542969 C 105.84375 109.476562 103.484375 111.835938 100.550781 111.835938 Z M 26.460938 111.835938 "/>
<path style=" stroke:none;fill-rule:nonzero;fill:rgb(100%,100%,100%);fill-opacity:0.392157;" d="M 26.460938 11.882812 C 23.527344 11.882812 21.167969 14.242188 21.167969 17.175781 L 21.167969 17.835938 C 21.167969 14.90625 23.527344 12.539062 26.460938 12.542969 L 100.550781 12.542969 C 103.484375 12.539062 105.84375 14.90625 105.84375 17.835938 L 105.84375 17.175781 C 105.84375 14.242188 103.484375 11.882812 100.550781 11.882812 Z M 26.460938 11.882812 "/>
<path style=" stroke:none;fill-rule:nonzero;fill:rgb(12.941177%,12.941177%,12.941177%);fill-opacity:1;" d="M 26.460938 11.210938 C 23.328125 11.210938 20.792969 13.742188 20.792969 16.875 L 20.792969 106.84375 C 20.792969 109.976562 23.328125 112.511719 26.460938 112.511719 L 100.550781 112.511719 C 103.683594 112.511719 106.21875 109.976562 106.21875 106.84375 L 106.21875 16.875 C 106.21875 13.742188 103.683594 11.210938 100.550781 11.210938 Z M 26.460938 11.960938 L 100.550781 11.960938 C 103.28125 11.960938 105.46875 14.144531 105.46875 16.875 L 105.46875 106.84375 C 105.46875 109.574219 103.28125 111.761719 100.550781 111.761719 L 26.460938 111.761719 C 23.730469 111.761719 21.542969 109.574219 21.542969 106.84375 L 21.542969 16.875 C 21.542969 14.144531 23.730469 11.960938 26.460938 11.960938 Z M 26.460938 11.960938 "/>
<path style="fill-rule:nonzero;fill:url(#linear3);stroke-width:3.362691;stroke-linecap:round;stroke-linejoin:round;stroke:rgb(12.941177%,12.941177%,12.941177%);stroke-opacity:1;stroke-miterlimit:4;" d="M 280.457593 -55.140266 C 259.943927 -55.140266 243.414255 -38.626218 243.414255 -18.096928 C 243.414255 2.416738 259.943927 18.946409 280.457593 18.946409 C 300.986882 18.946409 317.50093 2.416738 317.50093 -18.096928 C 317.50093 -38.626218 300.986882 -55.140266 280.457593 -55.140266 Z M 254.428828 32.413873 C 225.572209 39.053864 204.355485 56.427205 201.433889 77.456447 C 201.199536 78.190752 201.090172 78.987551 201.090172 79.799973 L 201.090172 85.080719 C 201.090172 89.486548 204.621085 93.017461 209.026914 93.017461 L 351.888271 93.017461 C 356.294101 93.017461 359.840637 89.486548 359.840637 85.080719 L 359.840637 79.799973 C 359.840637 78.987551 359.715649 78.190752 359.481296 77.456447 C 356.5597 56.427205 335.342976 39.053864 306.486357 32.413873 C 299.01832 37.288408 290.081674 40.116263 280.457593 40.116263 C 270.833512 40.116263 261.912489 37.288408 254.428828 32.413873 Z M 254.428828 32.413873 " transform="matrix(0.250024,0,0,0.250024,0,53.755133)"/>
</g>
</svg>

<svg xmlns="http://www.w3.org/2000/svg" width="128pt" height="128pt" viewBox="0 0 128 128"><defs><linearGradient id="a" gradientUnits="userSpaceOnUse" x1="254" y1="233.5" x2="254" y2="254.667" gradientTransform="matrix(.25002 0 0 .25002 0 53.755)"><stop offset="0" stop-opacity=".275"/><stop offset="1" stop-opacity="0"/></linearGradient><radialGradient id="b" gradientUnits="userSpaceOnUse" cx="450.909" cy="189.579" fx="450.909" fy="189.579" r="21.167" gradientTransform="matrix(0 -.31253 -.56255 0 200.584 254.381)"><stop offset="0" stop-opacity=".314"/><stop offset=".222" stop-opacity=".275"/><stop offset="1" stop-opacity="0"/></radialGradient><radialGradient id="c" gradientUnits="userSpaceOnUse" cx="450.909" cy="189.579" fx="450.909" fy="189.579" r="21.167" gradientTransform="matrix(0 .31253 .56255 0 -73.572 -30.11)"><stop offset="0" stop-opacity=".314"/><stop offset=".222" stop-opacity=".275"/><stop offset="1" stop-opacity="0"/></radialGradient><radialGradient id="d" gradientUnits="userSpaceOnUse" cx="450.909" cy="189.579" fx="450.909" fy="189.579" r="21.167" gradientTransform="matrix(0 -.31253 .56255 0 -73.572 254.381)"><stop offset="0" stop-opacity=".314"/><stop offset=".222" stop-opacity=".275"/><stop offset="1" stop-opacity="0"/></radialGradient><radialGradient id="e" gradientUnits="userSpaceOnUse" cx="450.909" cy="189.579" fx="450.909" fy="189.579" r="21.167" gradientTransform="matrix(0 .31253 -.56255 0 200.584 -30.11)"><stop offset="0" stop-opacity=".314"/><stop offset=".222" stop-opacity=".275"/><stop offset="1" stop-opacity="0"/></radialGradient><linearGradient id="f" gradientUnits="userSpaceOnUse" x1="306.917" y1="-25.792" x2="305.955" y2="-141.415" gradientTransform="matrix(.3014 0 0 .86965 -23.416 134.565)"><stop offset="0" stop-color="#bcaaa4"/><stop offset="1" stop-color="#d7ccc8"/></linearGradient><linearGradient id="g" gradientUnits="userSpaceOnUse" x1="165.485" y1="-25.792" x2="165.485" y2="-141.415" gradientTransform="matrix(4.55614 0 0 13.14618 -353.973 2034.18)"><stop offset="0" stop-color="#8d6e63"/><stop offset="1" stop-color="#a1887f"/></linearGradient><linearGradient id="h" gradientUnits="userSpaceOnUse" x1="920" y1="1786.047" x2="920" y2="266.047" gradientTransform="matrix(.26458 0 0 .26458 31.75 -239.058)"><stop offset="0" stop-color="#8d6e63"/><stop offset="1" stop-color="#a1887f"/></linearGradient></defs><path d="M31.754 112.137h63.504v5.293H31.754zm0 0" fill="url(#a)"/><path d="M95.258 112.137h10.586v-5.293H95.258zm0 0" fill="url(#b)"/><path d="M31.754 112.137H21.168v5.293h10.586zm0 0" fill="url(#c)"/><path d="M31.754 112.137H21.168v-5.293h10.586zm0 0" fill="url(#d)"/><path d="M95.258 112.137h10.586v5.293H95.258zm0 0" fill="url(#e)"/><path d="M26.46 11.586h74.09a5.291 5.291 0 0 1 5.294 5.289v89.969a5.295 5.295 0 0 1-5.293 5.293H26.46a5.295 5.295 0 0 1-5.293-5.293V16.875a5.291 5.291 0 0 1 5.293-5.29zm0 0" fill="url(#f)"/><path d="M400.001 175.14c-44.346 0-80.012 35.667-80.012 79.954V1615.12c0 44.288 35.666 80.012 80.012 80.012H519.99V175.141zm0 0" transform="scale(.06615)" fill="url(#g)" stroke-width="11.339" stroke-linecap="round" stroke="#212121"/><path d="M26.46 111.836a5.28 5.28 0 0 1-5.292-5.293v-.66a5.28 5.28 0 0 0 5.293 5.293h74.09a5.28 5.28 0 0 0 5.293-5.293v.66a5.28 5.28 0 0 1-5.293 5.293zm0 0" fill-opacity=".196"/><path d="M26.46 11.883a5.28 5.28 0 0 0-5.292 5.293v.66a5.28 5.28 0 0 1 5.293-5.293h74.09a5.28 5.28 0 0 1 5.293 5.293v-.66a5.28 5.28 0 0 0-5.293-5.293zm0 0" fill="#fff" fill-opacity=".392"/><path d="M26.46 11.21a5.661 5.661 0 0 0-5.667 5.665v89.969a5.665 5.665 0 0 0 5.668 5.668h74.09a5.665 5.665 0 0 0 5.668-5.668V16.875a5.661 5.661 0 0 0-5.668-5.664zm0 .75h74.09a4.896 4.896 0 0 1 4.919 4.915v89.969a4.9 4.9 0 0 1-4.918 4.918H26.46a4.9 4.9 0 0 1-4.918-4.918V16.875a4.896 4.896 0 0 1 4.918-4.914zm0 0" fill="#212121"/><path d="M280.458-55.14c-20.514 0-37.044 16.514-37.044 37.043 0 20.514 16.53 37.043 37.044 37.043 20.529 0 37.043-16.53 37.043-37.043a36.953 36.953 0 0 0-37.043-37.043zm-26.03 87.554c-28.856 6.64-50.073 24.013-52.994 45.042a7.733 7.733 0 0 0-.344 2.344v5.28a7.908 7.908 0 0 0 7.937 7.937h142.861a7.921 7.921 0 0 0 7.953-7.936V79.8a7.74 7.74 0 0 0-.36-2.344c-2.921-21.029-24.138-38.402-52.995-45.042-7.468 4.874-16.404 7.702-26.028 7.702-9.624 0-18.546-2.828-26.03-7.702zm0 0" transform="matrix(.25002 0 0 .25002 0 53.755)" fill="url(#h)" stroke-width="3.363" stroke-linecap="round" stroke-linejoin="round" stroke="#212121"/></svg>
